!!!SOCIAL_FUNCTION:	unclassified songs
!!!PDT:	1909
!!!OTL: No_152_Song_of_Thanks_for_a_Pony_(b).krn
!!!REG: Great_Lakes
!!!LANG: Non-Tone
!!!LING_GROUP: Algonquin
**kern	**kern
*staff2	*staff1
=1-	=1-
*clefF4	*clefF4
*k[b-]	*k[b-]
*M2/4	*M2/4
2r	8.e\L
.	16e\Jk
.	12e\L
.	12g\
.	12e\J
=2	=2
12GG^/	8.d\L
12r	.
12GG/	.
.	16A\Jk
12GG^/	8A\L
12r	.
.	[8e\J
12GG/	.
=3||	=3||
*M3/4	*M3/4
2.r	8e\]
.	4f\
.	4e\
.	8d\
=4||	=4||
*M2/4	*M2/4
2r	8.f\L
.	16e\Jk
.	12e\L
.	12e\
.	12e\J
=5	=5
2r	8.d\L
.	16A\Jk
.	8.d\L
.	16A\Jk
=6	=6
2r	4A\
.	8.A\L
.	16F\Jk
=7	=7
2r	8.E\L
.	16D\Jk
.	8.D\L
.	16D\Jk
=8	=8
2r	2D\
=9||	=9||
*M3/4	*M3/4
2.r	8.E\L
.	16E\Jk
.	8.F\L
.	16E\Jk
.	8.E\L
.	16D\Jk
=10||	=10||
*M2/4	*M2/4
2r	8.F\L
.	16E\Jk
.	8.E\L
.	16D\Jk
=11	=11
2r	4D\
.	8r
.	8A\
=12	=12
2r	8.d\L
.	16d\Jk
.	12e-\L
.	e-q/
.	12d\
.	12A\J
=13	=13
2r	8.d\L
.	16A\Jk
.	16A\LK
.	8.A\J
=14	=14
2r	16A\LK
.	8.F\J
.	16E\LK
.	8.D\J
=15||	=15||
*M3/4	*M3/4
2.r	8.E\L
.	16E\Jk
.	8.F\L
.	16E\Jk
.	16E\LK
.	8.D\J
=16	=16
*M2/4	*M2/4
2r	8.F\L
.	16E\Jk
.	8.E\L
.	16D\Jk
=17	=17
2r	2D\
==	==
*-	*-
